packages/icons/svgs/duotone/Source=device.svg

<svg width="24" height="24" viewBox="0 0 24 24" fill="none" xmlns="http://www.w3.org/2000/svg">
<path fill-rule="evenodd" clip-rule="evenodd" d="M6 4C5.44728 4 5 4.44728 5 5V20C5 20.5527 5.44728 21 6 21H18C18.5527 21 19 20.5527 19 20V5C19 4.44728 18.5527 4 18 4H6ZM3 5C3 3.34272 4.34272 2 6 2H18C19.6573 2 21 3.34272 21 5V20C21 21.6573 19.6573 23 18 23H6C4.34272 23 3 21.6573 3 20V5Z" fill="black" style="fill:black;fill-opacity:1;"/>
<path fill-rule="evenodd" clip-rule="evenodd" d="M12 8C12.5523 8 13 8.44772 13 9V16C13 16.5523 12.5523 17 12 17C11.4477 17 11 16.5523 11 16V9C11 8.44772 11.4477 8 12 8Z" fill="black" style="fill:black;fill-opacity:1;"/>
<g opacity="0.5">
<path fill-rule="evenodd" clip-rule="evenodd" d="M14 1C14 0.447715 14.4477 0 15 0H17C17.5523 0 18 0.447715 18 1C18 1.55228 17.5523 2 17 2H15C14.4477 2 14 1.55228 14 1Z" fill="black" style="fill:black;fill-opacity:1;"/>
<path fill-rule="evenodd" clip-rule="evenodd" d="M8 11C8.55228 11 9 11.4477 9 12V13C9 13.5523 8.55228 14 8 14C7.44772 14 7 13.5523 7 13V12C7 11.4477 7.44772 11 8 11Z" fill="black" style="fill:black;fill-opacity:1;"/>
<path fill-rule="evenodd" clip-rule="evenodd" d="M16 10C16.5523 10 17 10.4477 17 11V14C17 14.5523 16.5523 15 16 15C15.4477 15 15 14.5523 15 14V11C15 10.4477 15.4477 10 16 10Z" fill="black" style="fill:black;fill-opacity:1;"/>
</g>
</svg>

<svg xmlns="http://www.w3.org/2000/svg" width="24" height="24" viewBox="0 0 24 24"><path fill-rule="evenodd" d="M6 4a1 1 0 0 0-1 1v15a1 1 0 0 0 1 1h12a1 1 0 0 0 1-1V5a1 1 0 0 0-1-1zM3 5a3 3 0 0 1 3-3h12a3 3 0 0 1 3 3v15a3 3 0 0 1-3 3H6a3 3 0 0 1-3-3z" clip-rule="evenodd"/><path fill-rule="evenodd" d="M12 8a1 1 0 0 1 1 1v7a1 1 0 1 1-2 0V9a1 1 0 0 1 1-1" clip-rule="evenodd"/><path fill-rule="evenodd" d="M14 1a1 1 0 0 1 1-1h2a1 1 0 1 1 0 2h-2a1 1 0 0 1-1-1M8 11a1 1 0 0 1 1 1v1a1 1 0 1 1-2 0v-1a1 1 0 0 1 1-1m8-1a1 1 0 0 1 1 1v3a1 1 0 1 1-2 0v-3a1 1 0 0 1 1-1" clip-rule="evenodd" opacity=".5"/></svg>
